X: 20699
T: Johnny Allen's
R: reel
M: 4/4
K: Dmixolydian
|:A3B AGFA|DccB cedc|(3AcA BG AGFA|DG G2 DGBG|
(3AF/G/A B2 AGFG|Adde f3g|afge (3fga e^c|dcAF G2FG:|
|:Addc AGFG|Adde fde^c|Addc AGFA|DG G2 DGBG|
AD D2 AGFG|Adde f3g|afge fde^c|dcAF G2FG:|
|:A3g fd=fe|dcAB cedc|A3g fd=fe|dcAF G2FG|
A3g fd=fe|dcAB cdeg|fdec (3ded cA|dBcA G2FG:|

